report_00007_2020-12-11T15:55:29.892Z/max-potential-fid/comparison/line/2_vs_3.svg

<svg width="640" height="500" xmlns="http://www.w3.org/2000/svg" xmlns:xlink="http://www.w3.org/1999/xlink"><path fill="#fff" d="M0 0h640v500H0z"/><defs><path id="d" stroke-width=".222" stroke="currentColor" d="M-1-1h2v2h-2z"/><path id="b" stroke-width=".222" stroke="currentColor" d="M0-1.33l-1.33 2h2.66z"/><path id="f" stroke-width=".222" stroke="currentColor" d="M0 1.33L1.265.411.782-1.067l-1.564-.009-.483 1.487z"/><use xlink:href="#b" id="c" stroke="currentColor" transform="rotate(180)"/><use xlink:href="#d" id="e" stroke="currentColor" transform="rotate(45)"/><circle id="a" stroke-width=".222" stroke="currentColor" cx="0" cy="0" r="1"/></defs><g fill="none" color="#000" stroke="currentColor"><path stroke="#000" d="M53.9 406h9m552.1 0h-9"/><text transform="translate(45.6 409.9)" stroke="none" fill="#000" font-family="Arial" font-size="12" text-anchor="end"><tspan>270</tspan></text></g><g fill="none" color="#000" stroke="currentColor"><path stroke="#000" d="M53.9 359.1h9m552.1 0h-9"/><text transform="translate(45.6 363)" stroke="none" fill="#000" font-family="Arial" font-size="12" text-anchor="end"><tspan>280</tspan></text></g><g fill="none" color="#000" stroke="currentColor"><path stroke="#000" d="M53.9 312.2h9m552.1 0h-9"/><text transform="translate(45.6 316.1)" stroke="none" fill="#000" font-family="Arial" font-size="12" text-anchor="end"><tspan>290</tspan></text></g><g fill="none" color="#000" stroke="currentColor"><path stroke="#000" d="M53.9 265.3h9m552.1 0h-9"/><text transform="translate(45.6 269.2)" stroke="none" fill="#000" font-family="Arial" font-size="12" text-anchor="end"><tspan>300</tspan></text></g><g fill="none" color="#000" stroke="currentColor"><path stroke="#000" d="M53.9 218.4h9m552.1 0h-9"/><text transform="translate(45.6 222.3)" stroke="none" fill="#000" font-family="Arial" font-size="12" text-anchor="end"><tspan>310</tspan></text></g><g fill="none" color="#000" stroke="currentColor"><path stroke="#000" d="M53.9 171.4h9m552.1 0h-9"/><text transform="translate(45.6 175.3)" stroke="none" fill="#000" font-family="Arial" font-size="12" text-anchor="end"><tspan>320</tspan></text></g><g fill="none" color="#000" stroke="currentColor"><path stroke="#000" d="M53.9 124.5h9m552.1 0h-9"/><text transform="translate(45.6 128.4)" stroke="none" fill="#000" font-family="Arial" font-size="12" text-anchor="end"><tspan>330</tspan></text></g><g fill="none" color="#000" stroke="currentColor"><path stroke="#000" d="M53.9 77.6h9m552.1 0h-9"/><text transform="translate(45.6 81.5)" stroke="none" fill="#000" font-family="Arial" font-size="12" text-anchor="end"><tspan>340</tspan></text></g><g fill="none" color="#000" stroke="currentColor"><path stroke="#000" d="M53.9 30.7h9m552.1 0h-9"/><text transform="translate(45.6 34.6)" stroke="none" fill="#000" font-family="Arial" font-size="12" text-anchor="end"><tspan>350</tspan></text></g><g fill="none" color="#000" stroke="currentColor"><path stroke="#000" d="M53.9 428v-9m0-400.9v9"/><text transform="translate(53.9 449.9)" stroke="none" fill="#000" font-family="Arial" font-size="12" text-anchor="middle"><tspan>0</tspan></text></g><g fill="none" color="#000" stroke="currentColor"><path stroke="#000" d="M110.6 428v-9m0-400.9v9"/><text transform="translate(110.6 449.9)" stroke="none" fill="#000" font-family="Arial" font-size="12" text-anchor="middle"><tspan>10</tspan></text></g><g fill="none" color="#000" stroke="currentColor"><path stroke="#000" d="M167.3 428v-9m0-400.9v9"/><text transform="translate(167.3 449.9)" stroke="none" fill="#000" font-family="Arial" font-size="12" text-anchor="middle"><tspan>20</tspan></text></g><g fill="none" color="#000" stroke="currentColor"><path stroke="#000" d="M223.9 428v-9m0-400.9v9"/><text transform="translate(223.9 449.9)" stroke="none" fill="#000" font-family="Arial" font-size="12" text-anchor="middle"><tspan>30</tspan></text></g><g fill="none" color="#000" stroke="currentColor"><path stroke="#000" d="M280.6 428v-9m0-400.9v9"/><text transform="translate(280.6 449.9)" stroke="none" fill="#000" font-family="Arial" font-size="12" text-anchor="middle"><tspan>40</tspan></text></g><g fill="none" color="#000" stroke="currentColor"><path stroke="#000" d="M337.3 428v-9m0-400.9v9"/><text transform="translate(337.3 449.9)" stroke="none" fill="#000" font-family="Arial" font-size="12" text-anchor="middle"><tspan>50</tspan></text></g><g fill="none" color="#000" stroke="currentColor"><path stroke="#000" d="M394 428v-9m0-400.9v9"/><text transform="translate(394 449.9)" stroke="none" fill="#000" font-family="Arial" font-size="12" text-anchor="middle"><tspan>60</tspan></text></g><g fill="none" color="#000" stroke="currentColor"><path stroke="#000" d="M450.6 428v-9m0-400.9v9"/><text transform="translate(450.6 449.9)" stroke="none" fill="#000" font-family="Arial" font-size="12" text-anchor="middle"><tspan>70</tspan></text></g><g fill="none" color="#000" stroke="currentColor"><path stroke="#000" d="M507.3 428v-9m0-400.9v9"/><text transform="translate(507.3 449.9)" stroke="none" fill="#000" font-family="Arial" font-size="12" text-anchor="middle"><tspan>80</tspan></text></g><g fill="none" color="#000" stroke="currentColor"><path stroke="#000" d="M564 428v-9m0-400.9v9"/><text transform="translate(564 449.9)" stroke="none" fill="#000" font-family="Arial" font-size="12" text-anchor="middle"><tspan>90</tspan></text></g><path stroke="#000" d="M53.9 18.1V428H615V18.1H53.9z" fill="none" color="#000"/><text transform="translate(275.6 467.9)" stroke="none" fill="#000" font-family="Arial" font-size="12" text-anchor="end" color="#000"><tspan>pages+cached</tspan></text><path stroke="#9400D3" d="M283.9 464h42.2M53.9 331l5.7-56.3 5.6 89.1 5.7-84.4 5.7 23.4 5.6-197.1 5.7 309.7 5.7-136L99.2 392l5.7-108 5.7 131.4 5.6-14.1 5.7-126.6 5.7-131.4 5.6 154.8 5.7-18.7 5.7 117.3 5.7-112.7 5.6 4.7 5.7 112.6 5.7-126.6h11.3l5.7 103.2 5.6-112.6 5.7-32.9 5.7 159.6 5.6-112.6 5.7 9.3 5.7 103.3 5.6-131.4 5.7 117.3 5.7 18.8 5.6 4.6 5.7 4.7 5.7-159.5 5.6 70.4L263.6 26l5.7 323.7h5.6l5.7-65.7 5.7 14.1 5.6-23.4 5.7-89.2 5.7 201.8 5.6-136.1 5.7 154.8 5.7-32.8 5.6 23.5 5.7-117.3 5.7 126.6 5.7-243.9 5.6 239.2 5.7-14 5.7-112.6 5.6 103.2H377l5.6-98.5 5.7 4.6 5.7 122 5.6-28.1 5.7 18.8 5.7-37.6 5.6-89.1 5.7-9.4L428 406l5.6-117.3 5.7 84.5 5.7 23.5h5.6l5.7-9.4 5.7-154.9 5.6 70.4 5.7-14.1 5.7 93.9 5.6-56.3 5.7 56.3 5.7 14.1 5.6-103.3 5.7-37.5 5.7 37.5 5.6-18.7 5.7 122 5.7-14.1 5.7 23.4 5.6-9.3h5.7l5.7-9.4 5.6 14 5.7-126.6 5.7 117.3 5.6 9.3 5.7-4.6 5.7-112.7 5.6 112.7h5.7l5.7-9.4 5.6-117.3h5.7" fill="none" color="#000"/><text transform="translate(275.6 485.9)" stroke="none" fill="#000" font-family="Arial" font-size="12" text-anchor="end" color="#000"><tspan>pages+cached+nointeractive</tspan></text><path stroke="#009E73" d="M283.9 482h42.2M53.9 246.5l5.7 150.2 5.6-215.9 5.7 122h5.7l5.6 89.2 5.7-79.8 5.7 89.1 5.6-60.9 5.7-215.9 5.7 159.5 5.6 4.7 5.7 65.7 5.7-65.7 5.6 112.6h5.7l5.7-121.9 5.7 121.9 5.6-9.3 5.7-98.6 5.7 98.6 5.6-9.4 5.7 14.1 5.7-117.3 5.6 121.9h5.7l5.7 9.4 5.6-4.7 5.7-9.3h5.7l5.6-122 5.7 98.5 5.7 28.1 5.6-112.6 5.7 108 5.7 14 5.6-42.2 5.7 18.8 5.7-103.3 5.6 103.3 5.7 14 5.7-136 5.6 154.8 5.7-131.4 5.7 108 5.6-14.1 5.7-4.7 5.7 9.4 5.6-4.7 5.7 14.1 5.7 4.6 5.7-18.7 5.6-9.4 5.7 42.2L360 392h5.6l5.7-136.1 5.7 46.9 5.6 84.5 5.7 18.7 5.7-9.3 5.6-112.7 5.7 103.3 5.7 23.4 5.6 4.7 5.7-18.7 5.7-9.4 5.6 18.7 5.7-70.3 5.7 61 5.6-140.8 5.7 28.1 5.7 108 5.6-112.6 5.7 126.6 5.7-14 5.6 4.7 5.7 4.6 5.7-14 5.6 23.4 5.7-65.7 5.7 61 5.6-107.9 5.7 98.6h5.7l5.7-169 5.6 164.3 5.7-112.6 5.7 117.3 5.6-37.6 5.7 23.5 5.7-89.2 5.6 98.6 5.7 14 5.7-9.3 5.6-103.3 5.7 117.3 5.7-4.7 5.6-14 5.7-42.3" fill="none" color="#000"/><text transform="translate(550.2 467.9)" stroke="none" fill="#000" font-family="Arial" font-size="12" text-anchor="end" color="#000"><tspan>score p10=130</tspan></text><path stroke="#56B4E9" d="M558.5 464h42.2" fill="none" color="#000"/><g><text transform="translate(550.2 485.9)" stroke="none" fill="#000" font-family="Arial" font-size="12" text-anchor="end" color="#000"><tspan>score median=250</tspan></text><path stroke="#E69F00" d="M558.5 482h42.2" fill="none" color="#000"/></g><g fill="none" color="#000" stroke="currentColor"><path stroke="#000" d="M53.9 18.1V428H615V18.1H53.9z"/></g></svg>

<?xml version="1.0" encoding="utf-8"  standalone="no"?>
<svg 
 width="640" height="500"
 viewBox="0 0 640 500"
 xmlns="http://www.w3.org/2000/svg"
 xmlns:xlink="http://www.w3.org/1999/xlink"
>

<title>Gnuplot</title>
<desc>Produced by GNUPLOT 5.4 patchlevel 0 </desc>

<g id="gnuplot_canvas">

<rect x="0" y="0" width="640" height="500" fill="#ffffff"/>
<defs>

	<circle id='gpDot' r='0.5' stroke-width='0.5' stroke='currentColor'/>
	<path id='gpPt0' stroke-width='0.222' stroke='currentColor' d='M-1,0 h2 M0,-1 v2'/>
	<path id='gpPt1' stroke-width='0.222' stroke='currentColor' d='M-1,-1 L1,1 M1,-1 L-1,1'/>
	<path id='gpPt2' stroke-width='0.222' stroke='currentColor' d='M-1,0 L1,0 M0,-1 L0,1 M-1,-1 L1,1 M-1,1 L1,-1'/>
	<rect id='gpPt3' stroke-width='0.222' stroke='currentColor' x='-1' y='-1' width='2' height='2'/>
	<rect id='gpPt4' stroke-width='0.222' stroke='currentColor' fill='currentColor' x='-1' y='-1' width='2' height='2'/>
	<circle id='gpPt5' stroke-width='0.222' stroke='currentColor' cx='0' cy='0' r='1'/>
	<use xlink:href='#gpPt5' id='gpPt6' fill='currentColor' stroke='none'/>
	<path id='gpPt7' stroke-width='0.222' stroke='currentColor' d='M0,-1.33 L-1.33,0.67 L1.33,0.67 z'/>
	<use xlink:href='#gpPt7' id='gpPt8' fill='currentColor' stroke='none'/>
	<use xlink:href='#gpPt7' id='gpPt9' stroke='currentColor' transform='rotate(180)'/>
	<use xlink:href='#gpPt9' id='gpPt10' fill='currentColor' stroke='none'/>
	<use xlink:href='#gpPt3' id='gpPt11' stroke='currentColor' transform='rotate(45)'/>
	<use xlink:href='#gpPt11' id='gpPt12' fill='currentColor' stroke='none'/>
	<path id='gpPt13' stroke-width='0.222' stroke='currentColor' d='M0,1.330 L1.265,0.411 L0.782,-1.067 L-0.782,-1.076 L-1.265,0.411 z'/>
	<use xlink:href='#gpPt13' id='gpPt14' fill='currentColor' stroke='none'/>
	<filter id='textbox' filterUnits='objectBoundingBox' x='0' y='0' height='1' width='1'>
	  <feFlood flood-color='#FFFFFF' flood-opacity='1' result='bgnd'/>
	  <feComposite in='SourceGraphic' in2='bgnd' operator='atop'/>
	</filter>
	<filter id='greybox' filterUnits='objectBoundingBox' x='0' y='0' height='1' width='1'>
	  <feFlood flood-color='lightgrey' flood-opacity='1' result='grey'/>
	  <feComposite in='SourceGraphic' in2='grey' operator='atop'/>
	</filter>
</defs>
<g fill="none" color="#FFFFFF" stroke="black" stroke-width="1.00" stroke-linecap="butt" stroke-linejoin="miter">
</g>
<g fill="none" color="black" stroke="currentColor" stroke-width="1.00" stroke-linecap="butt" stroke-linejoin="miter">
	<path stroke='black'  d='M53.9,406.0 L62.9,406.0 M615.0,406.0 L606.0,406.0  '/>	<g transform="translate(45.6,409.9)" stroke="none" fill="black" font-family="Arial" font-size="12.00"  text-anchor="end">
		<text><tspan font-family="Arial" > 270</tspan></text>
	</g>
</g>
<g fill="none" color="black" stroke="currentColor" stroke-width="1.00" stroke-linecap="butt" stroke-linejoin="miter">
	<path stroke='black'  d='M53.9,359.1 L62.9,359.1 M615.0,359.1 L606.0,359.1  '/>	<g transform="translate(45.6,363.0)" stroke="none" fill="black" font-family="Arial" font-size="12.00"  text-anchor="end">
		<text><tspan font-family="Arial" > 280</tspan></text>
	</g>
</g>
<g fill="none" color="black" stroke="currentColor" stroke-width="1.00" stroke-linecap="butt" stroke-linejoin="miter">
	<path stroke='black'  d='M53.9,312.2 L62.9,312.2 M615.0,312.2 L606.0,312.2  '/>	<g transform="translate(45.6,316.1)" stroke="none" fill="black" font-family="Arial" font-size="12.00"  text-anchor="end">
		<text><tspan font-family="Arial" > 290</tspan></text>
	</g>
</g>
<g fill="none" color="black" stroke="currentColor" stroke-width="1.00" stroke-linecap="butt" stroke-linejoin="miter">
	<path stroke='black'  d='M53.9,265.3 L62.9,265.3 M615.0,265.3 L606.0,265.3  '/>	<g transform="translate(45.6,269.2)" stroke="none" fill="black" font-family="Arial" font-size="12.00"  text-anchor="end">
		<text><tspan font-family="Arial" > 300</tspan></text>
	</g>
</g>
<g fill="none" color="black" stroke="currentColor" stroke-width="1.00" stroke-linecap="butt" stroke-linejoin="miter">
	<path stroke='black'  d='M53.9,218.4 L62.9,218.4 M615.0,218.4 L606.0,218.4  '/>	<g transform="translate(45.6,222.3)" stroke="none" fill="black" font-family="Arial" font-size="12.00"  text-anchor="end">
		<text><tspan font-family="Arial" > 310</tspan></text>
	</g>
</g>
<g fill="none" color="black" stroke="currentColor" stroke-width="1.00" stroke-linecap="butt" stroke-linejoin="miter">
	<path stroke='black'  d='M53.9,171.4 L62.9,171.4 M615.0,171.4 L606.0,171.4  '/>	<g transform="translate(45.6,175.3)" stroke="none" fill="black" font-family="Arial" font-size="12.00"  text-anchor="end">
		<text><tspan font-family="Arial" > 320</tspan></text>
	</g>
</g>
<g fill="none" color="black" stroke="currentColor" stroke-width="1.00" stroke-linecap="butt" stroke-linejoin="miter">
	<path stroke='black'  d='M53.9,124.5 L62.9,124.5 M615.0,124.5 L606.0,124.5  '/>	<g transform="translate(45.6,128.4)" stroke="none" fill="black" font-family="Arial" font-size="12.00"  text-anchor="end">
		<text><tspan font-family="Arial" > 330</tspan></text>
	</g>
</g>
<g fill="none" color="black" stroke="currentColor" stroke-width="1.00" stroke-linecap="butt" stroke-linejoin="miter">
	<path stroke='black'  d='M53.9,77.6 L62.9,77.6 M615.0,77.6 L606.0,77.6  '/>	<g transform="translate(45.6,81.5)" stroke="none" fill="black" font-family="Arial" font-size="12.00"  text-anchor="end">
		<text><tspan font-family="Arial" > 340</tspan></text>
	</g>
</g>
<g fill="none" color="black" stroke="currentColor" stroke-width="1.00" stroke-linecap="butt" stroke-linejoin="miter">
	<path stroke='black'  d='M53.9,30.7 L62.9,30.7 M615.0,30.7 L606.0,30.7  '/>	<g transform="translate(45.6,34.6)" stroke="none" fill="black" font-family="Arial" font-size="12.00"  text-anchor="end">
		<text><tspan font-family="Arial" > 350</tspan></text>
	</g>
</g>
<g fill="none" color="black" stroke="currentColor" stroke-width="1.00" stroke-linecap="butt" stroke-linejoin="miter">
	<path stroke='black'  d='M53.9,428.0 L53.9,419.0 M53.9,18.1 L53.9,27.1  '/>	<g transform="translate(53.9,449.9)" stroke="none" fill="black" font-family="Arial" font-size="12.00"  text-anchor="middle">
		<text><tspan font-family="Arial" > 0</tspan></text>
	</g>
</g>
<g fill="none" color="black" stroke="currentColor" stroke-width="1.00" stroke-linecap="butt" stroke-linejoin="miter">
	<path stroke='black'  d='M110.6,428.0 L110.6,419.0 M110.6,18.1 L110.6,27.1  '/>	<g transform="translate(110.6,449.9)" stroke="none" fill="black" font-family="Arial" font-size="12.00"  text-anchor="middle">
		<text><tspan font-family="Arial" > 10</tspan></text>
	</g>
</g>
<g fill="none" color="black" stroke="currentColor" stroke-width="1.00" stroke-linecap="butt" stroke-linejoin="miter">
	<path stroke='black'  d='M167.3,428.0 L167.3,419.0 M167.3,18.1 L167.3,27.1  '/>	<g transform="translate(167.3,449.9)" stroke="none" fill="black" font-family="Arial" font-size="12.00"  text-anchor="middle">
		<text><tspan font-family="Arial" > 20</tspan></text>
	</g>
</g>
<g fill="none" color="black" stroke="currentColor" stroke-width="1.00" stroke-linecap="butt" stroke-linejoin="miter">
	<path stroke='black'  d='M223.9,428.0 L223.9,419.0 M223.9,18.1 L223.9,27.1  '/>	<g transform="translate(223.9,449.9)" stroke="none" fill="black" font-family="Arial" font-size="12.00"  text-anchor="middle">
		<text><tspan font-family="Arial" > 30</tspan></text>
	</g>
</g>
<g fill="none" color="black" stroke="currentColor" stroke-width="1.00" stroke-linecap="butt" stroke-linejoin="miter">
	<path stroke='black'  d='M280.6,428.0 L280.6,419.0 M280.6,18.1 L280.6,27.1  '/>	<g transform="translate(280.6,449.9)" stroke="none" fill="black" font-family="Arial" font-size="12.00"  text-anchor="middle">
		<text><tspan font-family="Arial" > 40</tspan></text>
	</g>
</g>
<g fill="none" color="black" stroke="currentColor" stroke-width="1.00" stroke-linecap="butt" stroke-linejoin="miter">
	<path stroke='black'  d='M337.3,428.0 L337.3,419.0 M337.3,18.1 L337.3,27.1  '/>	<g transform="translate(337.3,449.9)" stroke="none" fill="black" font-family="Arial" font-size="12.00"  text-anchor="middle">
		<text><tspan font-family="Arial" > 50</tspan></text>
	</g>
</g>
<g fill="none" color="black" stroke="currentColor" stroke-width="1.00" stroke-linecap="butt" stroke-linejoin="miter">
	<path stroke='black'  d='M394.0,428.0 L394.0,419.0 M394.0,18.1 L394.0,27.1  '/>	<g transform="translate(394.0,449.9)" stroke="none" fill="black" font-family="Arial" font-size="12.00"  text-anchor="middle">
		<text><tspan font-family="Arial" > 60</tspan></text>
	</g>
</g>
<g fill="none" color="black" stroke="currentColor" stroke-width="1.00" stroke-linecap="butt" stroke-linejoin="miter">
	<path stroke='black'  d='M450.6,428.0 L450.6,419.0 M450.6,18.1 L450.6,27.1  '/>	<g transform="translate(450.6,449.9)" stroke="none" fill="black" font-family="Arial" font-size="12.00"  text-anchor="middle">
		<text><tspan font-family="Arial" > 70</tspan></text>
	</g>
</g>
<g fill="none" color="black" stroke="currentColor" stroke-width="1.00" stroke-linecap="butt" stroke-linejoin="miter">
	<path stroke='black'  d='M507.3,428.0 L507.3,419.0 M507.3,18.1 L507.3,27.1  '/>	<g transform="translate(507.3,449.9)" stroke="none" fill="black" font-family="Arial" font-size="12.00"  text-anchor="middle">
		<text><tspan font-family="Arial" > 80</tspan></text>
	</g>
</g>
<g fill="none" color="black" stroke="currentColor" stroke-width="1.00" stroke-linecap="butt" stroke-linejoin="miter">
	<path stroke='black'  d='M564.0,428.0 L564.0,419.0 M564.0,18.1 L564.0,27.1  '/>	<g transform="translate(564.0,449.9)" stroke="none" fill="black" font-family="Arial" font-size="12.00"  text-anchor="middle">
		<text><tspan font-family="Arial" > 90</tspan></text>
	</g>
</g>
<g fill="none" color="black" stroke="currentColor" stroke-width="1.00" stroke-linecap="butt" stroke-linejoin="miter">
</g>
<g fill="none" color="black" stroke="currentColor" stroke-width="1.00" stroke-linecap="butt" stroke-linejoin="miter">
	<path stroke='black'  d='M53.9,18.1 L53.9,428.0 L615.0,428.0 L615.0,18.1 L53.9,18.1 Z  '/></g>
<g fill="none" color="black" stroke="currentColor" stroke-width="1.00" stroke-linecap="butt" stroke-linejoin="miter">
</g>
	<g id="gnuplot_plot_1" ><title>pages+cached</title>
<g fill="none" color="black" stroke="currentColor" stroke-width="1.00" stroke-linecap="butt" stroke-linejoin="miter">
	<g transform="translate(275.6,467.9)" stroke="none" fill="black" font-family="Arial" font-size="12.00"  text-anchor="end">
		<text><tspan font-family="Arial" >pages+cached</tspan></text>
	</g>
</g>
<g fill="none" color="black" stroke="currentColor" stroke-width="1.00" stroke-linecap="butt" stroke-linejoin="miter">
	<path stroke='rgb(148,   0, 211)'  d='M283.9,464.0 L326.1,464.0 M53.9,331.0 L59.6,274.7 L65.2,363.8 L70.9,279.4 L76.6,302.8 L82.2,105.7
		L87.9,415.4 L93.6,279.4 L99.2,392.0 L104.9,284.0 L110.6,415.4 L116.2,401.3 L121.9,274.7 L127.6,143.3
		L133.2,298.1 L138.9,279.4 L144.6,396.7 L150.3,284.0 L155.9,288.7 L161.6,401.3 L167.3,274.7 L172.9,274.7
		L178.6,274.7 L184.3,377.9 L189.9,265.3 L195.6,232.4 L201.3,392.0 L206.9,279.4 L212.6,288.7 L218.3,392.0
		L223.9,260.6 L229.6,377.9 L235.3,396.7 L240.9,401.3 L246.6,406.0 L252.3,246.5 L257.9,316.9 L263.6,26.0
		L269.3,349.7 L274.9,349.7 L280.6,284.0 L286.3,298.1 L291.9,274.7 L297.6,185.5 L303.3,387.3 L308.9,251.2
		L314.6,406.0 L320.3,373.2 L325.9,396.7 L331.6,279.4 L337.3,406.0 L343.0,162.1 L348.6,401.3 L354.3,387.3
		L360.0,274.7 L365.6,377.9 L371.3,377.9 L377.0,377.9 L382.6,279.4 L388.3,284.0 L394.0,406.0 L399.6,377.9
		L405.3,396.7 L411.0,359.1 L416.6,270.0 L422.3,260.6 L428.0,406.0 L433.6,288.7 L439.3,373.2 L445.0,396.7
		L450.6,396.7 L456.3,387.3 L462.0,232.4 L467.6,302.8 L473.3,288.7 L479.0,382.6 L484.6,326.3 L490.3,382.6
		L496.0,396.7 L501.6,293.4 L507.3,255.9 L513.0,293.4 L518.6,274.7 L524.3,396.7 L530.0,382.6 L535.7,406.0
		L541.3,396.7 L547.0,396.7 L552.7,387.3 L558.3,401.3 L564.0,274.7 L569.7,392.0 L575.3,401.3 L581.0,396.7
		L586.7,284.0 L592.3,396.7 L598.0,396.7 L603.7,387.3 L609.3,270.0 L615.0,270.0  '/></g>
	</g>
	<g id="gnuplot_plot_2" ><title>pages+cached+nointeractive</title>
<g fill="none" color="black" stroke="currentColor" stroke-width="1.00" stroke-linecap="butt" stroke-linejoin="miter">
	<g transform="translate(275.6,485.9)" stroke="none" fill="black" font-family="Arial" font-size="12.00"  text-anchor="end">
		<text><tspan font-family="Arial" >pages+cached+nointeractive</tspan></text>
	</g>
</g>
<g fill="none" color="black" stroke="currentColor" stroke-width="1.00" stroke-linecap="butt" stroke-linejoin="miter">
	<path stroke='rgb(  0, 158, 115)'  d='M283.9,482.0 L326.1,482.0 M53.9,246.5 L59.6,396.7 L65.2,180.8 L70.9,302.8 L76.6,302.8 L82.2,392.0
		L87.9,312.2 L93.6,401.3 L99.2,340.4 L104.9,124.5 L110.6,284.0 L116.2,288.7 L121.9,354.4 L127.6,288.7
		L133.2,401.3 L138.9,401.3 L144.6,279.4 L150.3,401.3 L155.9,392.0 L161.6,293.4 L167.3,392.0 L172.9,382.6
		L178.6,396.7 L184.3,279.4 L189.9,401.3 L195.6,401.3 L201.3,410.7 L206.9,406.0 L212.6,396.7 L218.3,396.7
		L223.9,274.7 L229.6,373.2 L235.3,401.3 L240.9,288.7 L246.6,396.7 L252.3,410.7 L257.9,368.5 L263.6,387.3
		L269.3,284.0 L274.9,387.3 L280.6,401.3 L286.3,265.3 L291.9,420.1 L297.6,288.7 L303.3,396.7 L308.9,382.6
		L314.6,377.9 L320.3,387.3 L325.9,382.6 L331.6,396.7 L337.3,401.3 L343.0,382.6 L348.6,373.2 L354.3,415.4
		L360.0,392.0 L365.6,392.0 L371.3,255.9 L377.0,302.8 L382.6,387.3 L388.3,406.0 L394.0,396.7 L399.6,284.0
		L405.3,387.3 L411.0,410.7 L416.6,415.4 L422.3,396.7 L428.0,387.3 L433.6,406.0 L439.3,335.7 L445.0,396.7
		L450.6,255.9 L456.3,284.0 L462.0,392.0 L467.6,279.4 L473.3,406.0 L479.0,392.0 L484.6,396.7 L490.3,401.3
		L496.0,387.3 L501.6,410.7 L507.3,345.0 L513.0,406.0 L518.6,298.1 L524.3,396.7 L530.0,396.7 L535.7,227.7
		L541.3,392.0 L547.0,279.4 L552.7,396.7 L558.3,359.1 L564.0,382.6 L569.7,293.4 L575.3,392.0 L581.0,406.0
		L586.7,396.7 L592.3,293.4 L598.0,410.7 L603.7,406.0 L609.3,392.0 L615.0,349.7  '/></g>
	</g>
	<g id="gnuplot_plot_3" ><title>score p10=130</title>
<g fill="none" color="black" stroke="currentColor" stroke-width="1.00" stroke-linecap="butt" stroke-linejoin="miter">
	<g transform="translate(550.2,467.9)" stroke="none" fill="black" font-family="Arial" font-size="12.00"  text-anchor="end">
		<text><tspan font-family="Arial" >score p10=130</tspan></text>
	</g>
</g>
<g fill="none" color="black" stroke="currentColor" stroke-width="1.00" stroke-linecap="butt" stroke-linejoin="miter">
	<path stroke='rgb( 86, 180, 233)'  d='M558.5,464.0 L600.7,464.0  '/></g>
	</g>
	<g id="gnuplot_plot_4" ><title>score median=250</title>
<g fill="none" color="black" stroke="currentColor" stroke-width="1.00" stroke-linecap="butt" stroke-linejoin="miter">
	<g transform="translate(550.2,485.9)" stroke="none" fill="black" font-family="Arial" font-size="12.00"  text-anchor="end">
		<text><tspan font-family="Arial" >score median=250</tspan></text>
	</g>
</g>
<g fill="none" color="black" stroke="currentColor" stroke-width="1.00" stroke-linecap="butt" stroke-linejoin="miter">
	<path stroke='rgb(230, 159,   0)'  d='M558.5,482.0 L600.7,482.0  '/></g>
	</g>
<g fill="none" color="#FFFFFF" stroke="rgb(230, 159,   0)" stroke-width="2.00" stroke-linecap="butt" stroke-linejoin="miter">
</g>
<g fill="none" color="black" stroke="currentColor" stroke-width="2.00" stroke-linecap="butt" stroke-linejoin="miter">
</g>
<g fill="none" color="black" stroke="black" stroke-width="1.00" stroke-linecap="butt" stroke-linejoin="miter">
</g>
<g fill="none" color="black" stroke="currentColor" stroke-width="1.00" stroke-linecap="butt" stroke-linejoin="miter">
	<path stroke='black'  d='M53.9,18.1 L53.9,428.0 L615.0,428.0 L615.0,18.1 L53.9,18.1 Z  '/></g>
<g fill="none" color="black" stroke="currentColor" stroke-width="1.00" stroke-linecap="butt" stroke-linejoin="miter">
</g>
</g>
</svg>
